public/Icons/forfeit.svg

<svg id="Layer_1" data-name="Layer 1" xmlns="http://www.w3.org/2000/svg" width="600" height="200" viewBox="0 0 600 200"><defs><style>.cls-1{fill:#fff;}</style></defs><path d="M105.02836,0H494.97164C552.97719,0,600,44.77148,600,99.9999v.0002C600,155.22852,552.97719,200,494.97164,200H105.02836C47.02279,200,0,155.22852,0,100.0001v-.0002C0,44.77148,47.02279,0,105.02836,0Z" transform="translate(0 0)"/><path class="cls-1" d="M70.54272,46.73148h50.81983V56.9512H82.72241V88.31107h35.69971V98.39114H82.72241v42.69971H70.54272Z" transform="translate(0 0)"/><path class="cls-1" d="M219.36255,92.93118c0,32.479-19.74024,49.69971-43.81983,49.69971-24.91992,0-42.41992-19.32031-42.41992-47.87988,0-29.96,18.61963-49.55957,43.81983-49.55957C202.70239,45.19144,219.36255,64.93118,219.36255,92.93118Zm-73.21973,1.54c0,20.15967,10.91992,38.21924,30.09961,38.21924,19.31983,0,30.23975-17.7793,30.23975-39.19922,0-18.76025-9.79981-38.35986-30.09961-38.35986C156.22241,55.13138,146.14282,73.751,146.14282,94.47122Z" transform="translate(0 0)"/><path class="cls-1" d="M235.1814,47.99124a126.89288,126.89288,0,0,1,23.37988-1.96c13.02051,0,21.41992,2.37988,27.2998,7.69971,4.76075,4.20019,7.41993,10.64013,7.41993,17.91992,0,12.46-7.83985,20.72021-17.7793,24.08008v.41992c7.2793,2.52,11.62012,9.23975,13.85937,19.03955,3.08008,13.16016,5.32032,22.25977,7.28028,25.90039H284.04175c-1.54-2.66016-3.64063-10.78027-6.29981-22.54-2.80078-13.02051-7.84082-17.91992-18.90039-18.33984H247.36206v40.87988H235.1814Zm12.18066,42.98h12.46c13.01953,0,21.2793-7.14013,21.2793-17.91992,0-12.18018-8.81934-17.5-21.7002-17.64014a50.09635,50.09635,0,0,0-12.03906,1.12012Z" transform="translate(0 0)"/><path class="cls-1" d="M310.50073,46.73148H361.321V56.9512H322.6814V88.31107h35.69922V98.39114H322.6814v42.69971H310.50073Z" transform="translate(0 0)"/><path class="cls-1" d="M427.54077,96.8511H390.86108v34.02H431.741v10.21973H378.68042V46.73148h50.96V56.9512h-38.7793V86.771h36.67969Z" transform="translate(0 0)"/><path class="cls-1" d="M459.74,46.73148v94.35937H447.55933V46.73148Z" transform="translate(0 0)"/><path class="cls-1" d="M498.93921,57.09134H470.24V46.73148h69.85938V57.09134H511.25952v83.99951H498.93921Z" transform="translate(0 0)"/></svg>

<svg id="Layer_1" data-name="Layer 1" xmlns="http://www.w3.org/2000/svg" width="600" height="200"><defs><style>.cls-1{fill:#fff}</style></defs><path d="M105.028 0h389.944C552.977 0 600 44.771 600 100s-47.023 100-105.028 100H105.028C47.023 200 0 155.229 0 100S47.023 0 105.028 0z"/><path class="cls-1" d="M70.543 46.731h50.82v10.22h-38.64v31.36h35.7v10.08h-35.7v42.7h-12.18zM219.363 92.931c0 32.48-19.74 49.7-43.82 49.7-24.92 0-42.42-19.32-42.42-47.88 0-29.96 18.62-49.56 43.82-49.56 25.76 0 42.42 19.74 42.42 47.74zm-73.22 1.54c0 20.16 10.92 38.22 30.1 38.22 19.32 0 30.24-17.78 30.24-39.2 0-18.76-9.8-38.36-30.1-38.36-20.16 0-30.24 18.62-30.24 39.34zM235.181 47.991a126.893 126.893 0 0123.38-1.96c13.02 0 21.42 2.38 27.3 7.7 4.76 4.2 7.42 10.64 7.42 17.92 0 12.46-7.84 20.72-17.78 24.08v.42c7.28 2.52 11.62 9.24 13.86 19.04 3.08 13.16 5.32 22.26 7.28 25.9h-12.6c-1.54-2.66-3.64-10.78-6.3-22.54-2.8-13.02-7.84-17.92-18.9-18.34h-11.479v40.88h-12.18zm12.181 42.98h12.46c13.02 0 21.28-7.14 21.28-17.92 0-12.18-8.82-17.5-21.7-17.64a50.096 50.096 0 00-12.04 1.12zM310.5 46.731h50.821v10.22h-38.64v31.36h35.7v10.08h-35.7v42.7h-12.18zM427.54 96.851h-36.679v34.02h40.88v10.22h-53.06V46.73h50.96v10.22h-38.78v29.82h36.68zM459.74 46.731v94.36h-12.18V46.73zM498.94 57.091h-28.7v-10.36h69.86v10.36h-28.84v84h-12.32z"/></svg>
